X: 59
T: Jin bei
L: 1/8
M: 2/4
K: F
A> d A F/ G/ [I:setbarnb 1]| 
A D D D | 
G> c A F | 
D4 | 
G F/ G/ A A | 
d2g f/ a/ | 
A A/ G/ F F | 
G GA2 | 
c d/ d/ g/ a/ f | 
d2a2 | 
d/ f/ d/ c/ A g/ f/ | 
d4 |]

@@@ Tune index: 8727
